!!!COM: Bach, Johann Sebastian
!!!OTL: 165. O Lamm Gottes, unschuldig
!!!ONM: No. 165
!!!OCL: Erk
!!!SCA: BWV 401
!!!YOE: Riemenschneider, Albert
!!!OPR: 371 Harmonized Chorales and 69 Chorale Melodies with Figured Bass
!!!OPT: Bach Chorale Harmonizations
**harm	**root	**kern	**kern	**kern	**kern
!	!	!bass	!tenor	!alto	!sprno
*Iorgan	*Iorgan	*Iorgan	*Iorgan	*Iorgan	*Iorgan
*>[A,A,B]	*>[A,A,B]	*>[A,A,B]	*>[A,A,B]	*>[A,A,B]	*>[A,A,B]
*>norep[A,B]	*>norep[A,B]	*>norep[A,B]	*>norep[A,B]	*>norep[A,B]	*>norep[A,B]
*>A	*>A	*>A	*>A	*>A	*>A
*k[b-]	*k[b-]	*k[b-]	*k[b-]	*k[b-]	*k[b-]
*F:	*F:	*F:	*F:	*F:	*F:
*met(c)	*met(c)	*met(c)	*met(c)	*met(c)	*met(c)
*M4/4	*M4/4	*M4/4	*M4/4	*M4/4	*M4/4
*MM60	*MM60	*MM60	*MM60	*MM60	*MM60
I	4FF	8FF	8A	4c	4f
.	.	8GG	8B-	.	.
=1	=1	=1	=1	=1	=1
I7b	4FF	4AA	[4c	16c	4f
.	.	.	.	16d	.
.	.	.	.	8e-	.
IV	4BB-	[4BB-	8c]	8e-	4f
.	.	.	16B-	8d	.
.	.	.	16A	.	.
V7c	4CC	4BB-]	4G	8en	4cc
.	.	.	.	8c	.
Ib	4FF	8AA	[4c	8f	4cc
.	.	8GG	.	8e	.
=2	=2	=2	=2	=2	=2
vi7b	4DD	4FF	4c]	4a	2dd
V/V	4GG	4GG	4Bn	8g	.
.	.	.	.	8f	.
V;	4CC;	4C;	4G;	4e;	4cc;
iii	4AA	4AA	4A	[4e	4cc
=3	=3	=3	=3	=3	=3
vi	4DD	4D	4A	8e]	4f
.	.	.	.	[8d	.
Vb	4CC	4E	4G	8d]	4g
.	.	.	.	8c	.
I	4FF	8F	4.F	8c	4a
.	.	8E	.	16d	.
.	.	.	.	16e	.
IVb	4BB-	8D	.	[4f	4b-
.	.	8BB-	8d	.	.
=4	=4	=4	=4	=4	=4
Ic	4FF	4C	4c	8f]	4a
.	.	.	.	16e	.
.	.	.	.	16d	.
V	4CC	4CC	8.c	4e	8g
.	.	.	.	.	8f
.	.	.	16B-	.	.
I;	4FF;	4FF;	4A;	4c;	4f;
=:|!	=:|!	=:|!	=:|!	=:|!	=:|!
*>B	*>B	*>B	*>B	*>B	*>B
I	4FF	[4F	4c	4f	4a
=5	=5	=5	=5	=5	=5
I	4FF	8F]	4c	4f	4a
.	.	8E	.	.	.
vi	4DD	8D	4d	4f	4a
.	.	8C	.	.	.
V7b/V	4GG	4BBn	4d	4f	4g
Vb/vi	4AA	4C#	4A	4e	4a
=6	=6	=6	=6	=6	=6
!!linebreak: 2
vi	8DD	8D	8A	8d	8f
Vb	8CC	8E	8G	[8c	8e
vi7b	8DD	8F	8A	8c]	4d
V/V	8GG	8G	16G	8Bn	.
.	.	.	16F	.	.
V;	4CC;	4C;	4E;	4G;	4c;
V7b/IV	4FF	4AA	4F	4e-	4cc
=7	=7	=7	=7	=7	=7
IV	8BB-	4BB-	8F	8d	4dd
(vii7c)	8EE	.	8G	8en	.
I	4FF	[4F	8A	8f	4cc
.	.	.	8B-	16g	.
.	.	.	.	16a	.
Vb	4CC	8F]	[4c	4g	4cc
.	.	8E	.	.	.
I	8FF	4F	8c]	4f	8a
IVc	8BB-	.	8d	.	8b-
=8	=8	=8	=8	=8	=8
V7/IV	8FF	8F	4e-	4.a	4cc
viioD7/ii	8FF#	8F#	.	.	.
v/VI	4AA	8G	4d	.	4b-
.	.	8GG	.	[8g	.
VI;	4DD;	4D;	4d;	8g]	4a;
.	.	.	.	8f#;	.
iib	8GG	8BB-	8d	4g	4dd
V7b/V	8GG	8BBn	8fn	.	.
=9	=9	=9	=9	=9	=9
V	4CC	4C	[4en	4g	8cc
.	.	.	.	.	8b-
vi	4DD	4D	8e]	4f	4a
.	.	.	[8d	.	.
Vb	4CC	4E	8d]	[4g	4g
.	.	.	8c	.	.
I	4FF	4F	4c	8g]	4a
.	.	.	.	16f	.
.	.	.	.	16e	.
=10	=10	=10	=10	=10	=10
Ib	4FF	8AA	8c	4f	4cc
.	.	16BB-	8A	.	.
.	.	16C	.	.	.
vi	4DD	8D	8F	[4f	4a
.	.	8C	8A	.	.
ii7b	4GG	4BB-	4d	4f]	2g
V	4CC	4C	8c	4e	.
.	.	.	8B-	.	.
=11	=11	=11	=11	=11	=11
I;	2.FF;	2.FF;	2.A;	2.c;	2.f;
==	==	==	==	==	==
*-	*-	*-	*-	*-	*-
!!!CDT: 1685/3//-1750/7/28
!!!OCY: Deutschland
!!!AGN: chorale
!!!AST: Baroque
!!!AIN: vox
!!!YOY: 1941
!!!PPP: New York; London
!!!PPR: G. Schirmer
!!!ENC: David Huron
!!!EED: David Huron
!!!YEN: United States of America
!!!YER: 1992
!!!YEC: Copyright 1992 David Huron
!!!YEM: Rights to all derivative electronic formats reserved.
!!!YER: March 20, 1996
!!!AMT: simple quadruple
!!!EEV: 1.1
!!chor2scor: -l 2 -s 0.6 -o %b.pmx
